src/icons/card-boundaries.svg

<svg xmlns="http://www.w3.org/2000/svg" fill="none" viewBox="0 0 169 208">
  <g filter="url(#a)">
    <rect width="160" height="200" x="4.99829" y="-.00085449" fill="#3B185F" rx="8"/>
    <rect width="160" height="200" x="4.99829" y="-.00085449" fill="url(#b)" rx="8"/>
  </g>
  <path fill="#F5F5F5" fill-opacity=".08" d="m60.0357 129.321-5.3571-5.357c-.7104-.71-1.6777-1.105-2.6891-1.099-1.0113.007-1.9839.415-2.7038 1.135l-5.4286 5.429c-.7198.719-1.128 1.692-1.1347 2.703-.0067 1.012.3886 1.979 1.099 2.689l5.3572 5.358c.7104.71 1.6776 1.105 2.689 1.099 1.0114-.007 1.984-.415 2.7038-1.135L60 134.714c.7199-.72 1.1281-1.692 1.1348-2.704.0067-1.011-.3887-1.978-1.0991-2.689ZM43.9643 113.25l-5.3572-5.357c-.7104-.711-1.6776-1.106-2.689-1.099-1.0113.007-1.9839.415-2.7038 1.135l-5.4286 5.428c-.7199.72-1.128 1.693-1.1347 2.704-.0067 1.011.3886 1.979 1.099 2.689l5.3571 5.357c.7104.711 1.6777 1.106 2.6891 1.099 1.0113-.007 1.9839-.415 2.7038-1.135l5.4286-5.428c.7198-.72 1.128-1.693 1.1347-2.704.0067-1.011-.3886-1.979-1.099-2.689Zm32.1428 32.143-5.3571-5.357c-.7104-.711-1.6777-1.106-2.689-1.099-1.0114.006-1.984.415-2.7039 1.134l-5.4285 5.429c-.7199.72-1.1281 1.692-1.1348 2.704-.0067 1.011.3887 1.978 1.0991 2.689l5.3571 5.357c.7104.71 1.6777 1.106 2.689 1.099 1.0114-.007 1.984-.415 2.7039-1.135l5.4285-5.428c.7199-.72 1.1281-1.693 1.1348-2.704.0067-1.011-.3887-1.979-1.0991-2.689Zm48.6429-16.5-5.357-5.357c-.711-.711-1.678-1.106-2.689-1.099-1.012.006-1.984.415-2.704 1.134L108.571 129c-.719.72-1.128 1.692-1.134 2.704-.007 1.011.388 1.978 1.099 2.689l5.357 5.357c.71.71 1.678 1.106 2.689 1.099 1.011-.007 1.984-.415 2.704-1.135l5.428-5.428c.72-.72 1.128-1.693 1.135-2.704.007-1.011-.389-1.979-1.099-2.689Zm-16.286 16.286-5.357-5.358c-.71-.71-1.678-1.105-2.689-1.099-1.0112.007-1.9838.415-2.7037 1.135l-5.4286 5.429c-.7199.72-1.128 1.692-1.1347 2.704-.0067 1.011.3886 1.978 1.099 2.689l5.3571 5.357c.7104.71 1.6777 1.105 2.6889 1.099 1.012-.007 1.984-.415 2.704-1.135l5.429-5.429c.719-.719 1.128-1.692 1.134-2.703.007-1.012-.388-1.979-1.099-2.689Zm-16.2854 16.285-5.3572-5.357c-.7104-.71-1.6776-1.106-2.689-1.099-1.0114.007-1.984.415-2.7038 1.135L76 161.571c-.7199.72-1.1281 1.693-1.1348 2.704-.0067 1.012.3887 1.979 1.0991 2.689l5.3571 5.357c.7104.711 1.6777 1.106 2.6891 1.099 1.0113-.006 1.9839-.414 2.7038-1.134l5.4286-5.429c.7198-.72 1.128-1.692 1.1347-2.704.0067-1.011-.3886-1.978-1.099-2.689Zm48.8574-48.857-5.357-5.357c-.711-.71-1.678-1.106-2.689-1.099-1.012.007-1.984.415-2.704 1.135l-5.429 5.428c-.72.72-1.128 1.693-1.135 2.704-.006 1.011.389 1.979 1.099 2.689l5.358 5.357c.71.711 1.677 1.106 2.689 1.099 1.011-.006 1.984-.415 2.703-1.134L141 118c.72-.72 1.128-1.692 1.135-2.704.006-1.011-.389-1.978-1.099-2.689Zm16.285-16.2856L90.3571 29.3571c-1.4208-1.4208-3.3553-2.2114-5.378-2.198-2.0227.0134-3.9679.8297-5.4077 2.2695L11.7143 97.2857c-.7199.7199-1.1281 1.6925-1.1348 2.7038-.0067 1.0115.3887 1.9785 1.0991 2.6895l5.3571 5.357c.7104.71 1.6777 1.105 2.689 1.099 1.0114-.007 1.984-.415 2.7039-1.135l62.4285-62.4286 61.6069 61.6076c.711.71 1.678 1.105 2.689 1.099 1.012-.007 1.984-.415 2.704-1.135l5.429-5.429c.72-.72 1.128-1.692 1.134-2.7035.007-1.0114-.388-1.9787-1.099-2.6891Z"/>
  <defs>
    <linearGradient id="b" x1="164.998" x2="4.99828" y1="-.00084686" y2="199.999" gradientUnits="userSpaceOnUse">
      <stop stop-color="#A12568"/>
      <stop offset="1" stop-color="#A12568" stop-opacity="0"/>
    </linearGradient>
    <filter id="a" width="168" height="208" x=".998291" y="-.00085449" color-interpolation-filters="sRGB" filterUnits="userSpaceOnUse">
      <feFlood flood-opacity="0" result="BackgroundImageFix"/>
      <feColorMatrix in="SourceAlpha" result="hardAlpha" values="0 0 0 0 0 0 0 0 0 0 0 0 0 0 0 0 0 0 127 0"/>
      <feOffset dy="4"/>
      <feGaussianBlur stdDeviation="2"/>
      <feComposite in2="hardAlpha" operator="out"/>
      <feColorMatrix values="0 0 0 0 0 0 0 0 0 0 0 0 0 0 0 0 0 0 0.25 0"/>
      <feBlend in2="BackgroundImageFix" result="effect1_dropShadow"/>
      <feBlend in="SourceGraphic" in2="effect1_dropShadow" result="shape"/>
    </filter>
  </defs>
</svg>

<svg width="169" height="208" viewBox="0 0 169 208" fill="none" xmlns="http://www.w3.org/2000/svg">
<g filter="url(#filter0_d)">
<rect x="4.99829" y="-0.000854492" width="160" height="200" rx="8" fill="#3B185F"/>
<rect x="4.99829" y="-0.000854492" width="160" height="200" rx="8" fill="url(#paint0_linear)"/>
</g>
<path d="M60.0357 129.321L54.6786 123.964C53.9682 123.254 53.0009 122.859 51.9895 122.865C50.9782 122.872 50.0056 123.28 49.2857 124L43.8571 129.429C43.1373 130.148 42.7291 131.121 42.7224 132.132C42.7157 133.144 43.111 134.111 43.8214 134.821L49.1786 140.179C49.889 140.889 50.8562 141.284 51.8676 141.278C52.879 141.271 53.8516 140.863 54.5714 140.143L60 134.714C60.7199 133.994 61.1281 133.022 61.1348 132.01C61.1415 130.999 60.7461 130.032 60.0357 129.321ZM43.9643 113.25L38.6071 107.893C37.8967 107.182 36.9295 106.787 35.9181 106.794C34.9068 106.801 33.9342 107.209 33.2143 107.929L27.7857 113.357C27.0658 114.077 26.6577 115.05 26.651 116.061C26.6443 117.072 27.0396 118.04 27.75 118.75L33.1071 124.107C33.8175 124.818 34.7848 125.213 35.7962 125.206C36.8075 125.199 37.7801 124.791 38.5 124.071L43.9286 118.643C44.6484 117.923 45.0566 116.95 45.0633 115.939C45.07 114.928 44.6747 113.96 43.9643 113.25ZM76.1071 145.393L70.75 140.036C70.0396 139.325 69.0723 138.93 68.061 138.937C67.0496 138.943 66.077 139.352 65.3571 140.071L59.9286 145.5C59.2087 146.22 58.8005 147.192 58.7938 148.204C58.7871 149.215 59.1825 150.182 59.8929 150.893L65.25 156.25C65.9604 156.96 66.9277 157.356 67.939 157.349C68.9504 157.342 69.923 156.934 70.6429 156.214L76.0714 150.786C76.7913 150.066 77.1995 149.093 77.2062 148.082C77.2129 147.071 76.8175 146.103 76.1071 145.393ZM124.75 128.893L119.393 123.536C118.682 122.825 117.715 122.43 116.704 122.437C115.692 122.443 114.72 122.852 114 123.571L108.571 129C107.852 129.72 107.443 130.692 107.437 131.704C107.43 132.715 107.825 133.682 108.536 134.393L113.893 139.75C114.603 140.46 115.571 140.856 116.582 140.849C117.593 140.842 118.566 140.434 119.286 139.714L124.714 134.286C125.434 133.566 125.842 132.593 125.849 131.582C125.856 130.571 125.46 129.603 124.75 128.893ZM108.464 145.179L103.107 139.821C102.397 139.111 101.429 138.716 100.418 138.722C99.4068 138.729 98.4342 139.137 97.7143 139.857L92.2857 145.286C91.5658 146.006 91.1577 146.978 91.151 147.99C91.1443 149.001 91.5396 149.968 92.25 150.679L97.6071 156.036C98.3175 156.746 99.2848 157.141 100.296 157.135C101.308 157.128 102.28 156.72 103 156L108.429 150.571C109.148 149.852 109.557 148.879 109.563 147.868C109.57 146.856 109.175 145.889 108.464 145.179ZM92.1786 161.464L86.8214 156.107C86.111 155.397 85.1438 155.001 84.1324 155.008C83.121 155.015 82.1484 155.423 81.4286 156.143L76 161.571C75.2801 162.291 74.8719 163.264 74.8652 164.275C74.8585 165.287 75.2539 166.254 75.9643 166.964L81.3214 172.321C82.0318 173.032 82.9991 173.427 84.0105 173.42C85.0218 173.414 85.9944 173.006 86.7143 172.286L92.1429 166.857C92.8627 166.137 93.2709 165.165 93.2776 164.153C93.2843 163.142 92.889 162.175 92.1786 161.464ZM141.036 112.607L135.679 107.25C134.968 106.54 134.001 106.144 132.99 106.151C131.978 106.158 131.006 106.566 130.286 107.286L124.857 112.714C124.137 113.434 123.729 114.407 123.722 115.418C123.716 116.429 124.111 117.397 124.821 118.107L130.179 123.464C130.889 124.175 131.856 124.57 132.868 124.563C133.879 124.557 134.852 124.148 135.571 123.429L141 118C141.72 117.28 142.128 116.308 142.135 115.296C142.141 114.285 141.746 113.318 141.036 112.607ZM157.321 96.3214L90.3571 29.3571C88.9363 27.9363 87.0018 27.1457 84.9791 27.1591C82.9564 27.1725 81.0112 27.9888 79.5714 29.4286L11.7143 97.2857C10.9944 98.0056 10.5862 98.9782 10.5795 99.9895C10.5728 101.001 10.9682 101.968 11.6786 102.679L17.0357 108.036C17.7461 108.746 18.7134 109.141 19.7247 109.135C20.7361 109.128 21.7087 108.72 22.4286 108L84.8571 45.5714L146.464 107.179C147.175 107.889 148.142 108.284 149.153 108.278C150.165 108.271 151.137 107.863 151.857 107.143L157.286 101.714C158.006 100.994 158.414 100.022 158.42 99.0105C158.427 97.9991 158.032 97.0318 157.321 96.3214V96.3214Z" fill="#F5F5F5" fill-opacity="0.08"/>
<defs>
<filter id="filter0_d" x="0.998291" y="-0.000854492" width="168" height="208" filterUnits="userSpaceOnUse" color-interpolation-filters="sRGB">
<feFlood flood-opacity="0" result="BackgroundImageFix"/>
<feColorMatrix in="SourceAlpha" type="matrix" values="0 0 0 0 0 0 0 0 0 0 0 0 0 0 0 0 0 0 127 0" result="hardAlpha"/>
<feOffset dy="4"/>
<feGaussianBlur stdDeviation="2"/>
<feComposite in2="hardAlpha" operator="out"/>
<feColorMatrix type="matrix" values="0 0 0 0 0 0 0 0 0 0 0 0 0 0 0 0 0 0 0.25 0"/>
<feBlend mode="normal" in2="BackgroundImageFix" result="effect1_dropShadow"/>
<feBlend mode="normal" in="SourceGraphic" in2="effect1_dropShadow" result="shape"/>
</filter>
<linearGradient id="paint0_linear" x1="164.998" y1="-0.000846863" x2="4.99828" y2="199.999" gradientUnits="userSpaceOnUse">
<stop stop-color="#A12568"/>
<stop offset="1" stop-color="#A12568" stop-opacity="0"/>
</linearGradient>
</defs>
</svg>
